X: 105
T: Cotillon
%R: reel, march
B: Stewart "A Select Collection of Airs, Jigs, Marches and Reels", ca.1784, p.50,51 #105
F: http://imslp.org/wiki/A_Select_Collection_of_Airs,_Jigs,_Marches_and_Reels_%28Various%29
Z: 2017 John Chambers <jc:trillian.mit.edu>
M: 2/4
L: 1/16
K: G
g2g2 |\
gdef g2g2 | g4 GABc | d2ed cBAG | F2D2 g2g2 |\
gdef g2g2 | g4 gfed | ^c2de f2e2 | d4 :|
|: D2A2 |\
c4 cABG | F2D2 DEFG | AGAB c2B2 | A4 D2A2 |\
c4 cABG | F2D2 gfed | cBAG B2A2 | G4 :|
